X:1
T:Now begin the heavenly theme
T:Thomas Clark
T:p137, A Fifth Set of Psalm & Hymn Tunes, London: [c1809]
T:This edition by Edmund Gooch released into the public domain, September 2014.
T:Now begin the heavenly theme
T:BARHAM. P.M. Hy. 69. Dr. Rippon.
C:Thomas Clark
Z:p137, A Fifth Set of
Z:Psalm & Hymn Tunes,
Z:London: [c1809]
%%score [ 1 2 3 4 ]
L:1/8
M:3/4
K:F
V:1 treble nm="Soprano" snm="S."
V:2 treble nm="Alto" snm="A."
V:3 treble-8 transpose=-12 nm="Tenor" snm="T."
V:4 bass nm="Bass" snm="B."
V:1
 (F2 A2) c2 | f4 d2 | (c>B A2) G2 | A4 z2 | (B>c d2) B2 | G4 c2 | (d2 c2) =B2 | c4 z2 |: c4 d2 | %9
w: Mour- * ning|souls, dry|up _ _ your|tears,|Ba- * * nish|all your|guil- * ty|fears,|See your|
w: Now _ be-|gin the|heav’n- * * ly|theme,|Sing _ _ a-|loud in|Je- * su’s|name;|Ye who|
w: Ye, _ who|see the|Fa- * * ther’s|grace|Beam- * * ing|in the|Sa- * viour’s|face,|As to|
 (_e2 d2) c2 | (B>A G2) c2 | (B2 A2) z2 | (F2 A2) c2 | (f2 d2) B2 | A4 G2 | F4 z2 :| %16
w: guilt _ and|curse _ _ re-|move, _|Can- * cell’d|by _ re-|deem- ing|love.|
w: his _ sal-|va- * * tion|prove, _|Tri- * umph|in _ re-|deem- ing|love.|
w: Ca- * naan|on _ _ ye|move, _|Praise _ and|bless _ re-|deem- ing|love.|
V:2
 C4 F2 | F4 F2 | F4 E2 | F4 z2 | F4 F2 | E4 G2 | (F2 E2) D2 | E4 z2 |: F4 F2 | F4 F2 | F4 E2 | %11
w: Mour- ning|souls, dry|up your|tears,|Ba- nish|all your|guil- * ty|fears,|See your|guilt and|curse re-|
w: Now be-|gin the|heav’n- ly|theme,|Sing a-|loud in|Je- * su’s|name;|Ye who|his sal-|va- tion|
w: Ye, who|see the|Fa- ther’s|grace|Beam- ing|in the|Sa- * viour’s|face,|As to|Ca- naan|on ye|
 F4 z2 | C4 F2 | F4 F2 | F4 E2 | F4 z2 :| %16
w: move,|Can- cell’d|by re-|deem- ing|love.|
w: prove,|Tri- umph|in re-|deem- ing|love.|
w: move,|Praise and|bless re-|deem- ing|love.|
V:3
 (A2 F2) A2 | c4 B2 | (A>B c2) c2 | c4 z2 | (d>c B2) d2 | c4 c2 | (A2 G2) G2 | G4 z2 |: A4 B2 | %9
w: Mour- * ning|souls, dry|up _ _ your|tears,|Ba- * * nish|all your|guil- * ty|fears,|See your|
w: Now _ be-|gin the|heav’n- * * ly|theme,|Sing _ _ a-|loud in|Je- * su’s|name;|Ye who|
w: Ye, _ who|see the|Fa- * * ther’s|grace|Beam- * * ing|in the|Sa- * viour’s|face,|As to|
 (A2 B2) c2 | d4 c2 | c4 z2 | (A2 F2) A2 | (c2 d2) d2 | c4 B2 | A4 z2 :| %16
w: guilt _ and|curse re-|move,|Can- * cell’d|by _ re-|deem- ing|love.|
w: his _ sal-|va- tion|prove,|Tri- * umph|in _ re-|deem- ing|love.|
w: Ca- * naan|on ye|move,|Praise _ and|bless _ re-|deem- ing|love.|
V:4
 F,4 F,2 |"^6" A,4 B,2 |"^64" C4"^53" C,2 | F,4 z2 | B,4 B,,2 | C,4"^6" E,2 | %6
w: Mour- ning|souls, dry|up your|tears,|Ba- nish|all your|
w: Now be-|gin the|heav’n- ly|theme,|Sing a-|loud in|
w: Ye, who|see the|Fa- ther’s|grace|Beam- ing|in the|
"^6" (F,2"^64" G,2)"^5§" G,,2 | C,4 z2 |: %8
w: guil- * ty|fears,|
w: Je- * su’s|name;|
w: Sa- * viour’s|face,|
"^Notes: The order of staves in the source is Tenor - [Alto] - Air - [Bass], with the alto part printed in the treble clef an octave above sounding pitch.Only the first verse of text is given in the source: three selected subsequent verses have here been added editorially. The crotchet rest in thefinal bar has been added editorially: in the source, this bar has two beats (i.e. the preceding minim alone). The soprano Bb and A in bar 12,given here as two crotchets, are printed in the source as a small grace note Bb slurred to a full-sized minim A." (F,2"^42" _E,2)"^6" D,2 | %9
w: See _ your|
w: Ye _ who|
w: As _ to|
"^4!" (C,2 B,,2)"^6" A,,2 |"^5""^65" B,,4 C,2 | F,4 z2 | F,4 F,2 |"^6" (A,2 B,2)"^7" G,2 | %14
w: guilt _ and|curse re-|move,|Can- cell’d|by _ re-|
w: his _ sal-|va- tion|prove,|Tri- umph|in _ re-|
w: Ca- * naan|on ye|move,|Praise and|bless _ re-|
"^64" C4"^75" C,2 | F,4 z2 :| %16
w: deem- ing|love.|
w: deem- ing|love.|
w: deem- ing|love.|

